src/content/resume/images/treatwell.svg

<svg width="128" height="64" viewBox="0 0 128 64" fill="none" xmlns="http://www.w3.org/2000/svg">
<path fill-rule="evenodd" clip-rule="evenodd" d="M108.571 23.1902L105.714 23.476V39.1918L108.571 39.1902V23.1902ZM102.857 23.1902L100 23.476V39.1918L102.857 39.1902V23.1902ZM66.8532 35.1548V25.8738H66.6035L62.1087 29.9733V30.0474H64V36.0288C64 38.2346 65.2301 39.3999 67.0821 39.3999C68.518 39.3999 69.6417 38.7132 70.4117 37.4855V37.3398C69.933 37.5063 69.5168 37.5895 69.0799 37.5895C67.6856 37.5895 66.8532 36.6739 66.8532 35.1548ZM24 35.1548V25.8738H23.8689L19.4286 29.9733V30.0474H21.1429V36.0288C21.1429 38.2346 22.4955 39.3999 24.3475 39.3999C25.7626 39.3999 26.8863 38.7132 27.677 37.4855V37.3398C27.1984 37.5063 26.7614 37.5895 26.3244 37.5895C24.951 37.5895 24 36.6739 24 35.1548ZM57.1429 28.912V39.1902H60V28.5998L57.1429 28.912ZM32.5714 28.5998L29.7143 28.9328V39.1918L32.5714 39.1902V28.5998ZM91.8245 34.6554C92.2199 34.7802 92.7194 34.8635 93.2188 34.8635C95.5078 34.8635 97.4223 33.3236 97.4223 31.4923C97.4223 29.89 95.9032 28.6206 93.6974 28.5998V28.7455C94.4049 29.1201 94.5714 30.0149 94.5714 30.8056C94.5714 32.845 93.302 34.3849 91.8245 34.5097V34.6554ZM41.8819 34.6554C42.2773 34.7802 42.7559 34.8635 43.2762 34.8635C45.5652 34.8635 47.4589 33.3236 47.4589 31.4923C47.4589 29.89 45.9398 28.6206 43.734 28.5998V28.7455C44.4415 29.1201 44.608 30.0149 44.608 30.8056C44.608 32.845 43.3386 34.3849 41.8819 34.5097V34.6554ZM93.1147 28.5998C90.0557 28.5998 87.7875 30.9097 87.7875 34.0727C87.7875 37.2357 89.9517 39.3999 92.9691 39.3999C94.9876 39.3999 96.6315 38.3803 97.4431 36.5698V36.3826C96.8188 36.9444 95.7783 37.2357 94.7379 37.2357C92.3656 37.2357 90.8881 35.7375 90.8881 33.2195C90.8881 31.3675 91.6997 29.4114 93.1147 28.7455V28.5998ZM43.1721 28.5998C40.1131 28.5998 37.8241 30.9097 37.8241 34.0727C37.8241 37.2357 39.9883 39.3999 43.0057 39.3999C45.045 39.3999 46.6889 38.3803 47.4797 36.5698V36.3826C46.8554 36.9444 45.8149 37.2357 44.7745 37.2357C42.423 37.2357 40.9247 35.7167 40.9247 33.2195C40.9247 31.3675 41.7571 29.4114 43.1721 28.7455V28.5998ZM53.4312 39.3999C54.8462 39.3999 55.9075 38.5467 56.5734 37.2357V37.1109C56.2196 37.2982 55.7826 37.423 55.3248 37.423C53.7017 37.4022 52.5156 35.9872 52.5156 33.823C52.5156 30.9929 54.2427 29.0785 56.511 29.0785V28.912C56.0323 28.7039 55.4081 28.5998 54.763 28.5998C51.704 28.5998 49.3733 31.0345 49.3733 34.3849C49.3733 37.2566 51.0173 39.3999 53.4312 39.3999ZM67.7143 30.0474H70.5714V28.912H67.7143V30.0474ZM24.8572 30.0756H27.7143V28.9328H24.8572V30.0756ZM81.1429 28.912H77.7143L82.1065 39.3375H82.3146L83.917 35.9872L81.1429 28.912ZM75.1429 28.912H72L76.3007 39.3375H76.5088L78.1111 35.9872L75.1429 28.912ZM84 28.912C84.5203 29.9316 84.9574 31.8253 84.9574 32.8241H85.1031L87.1429 28.9045L84 28.912ZM33.1429 31.7617C33.788 31.0958 34.7859 30.9097 35.6807 30.9097C36.2634 30.9097 36.5866 31.0345 36.8572 31.1594V28.7455C36.6907 28.6831 36.4507 28.5998 36.1385 28.5998C34.4946 28.5998 33.4966 29.7224 33.1429 31.6576V31.7617Z" fill="currentColor"/>
</svg>

<svg xmlns="http://www.w3.org/2000/svg" width="128" height="64" fill="none" viewBox="0 0 128 64"><path fill="currentColor" fill-rule="evenodd" d="m108.571 23.19-2.857.286v15.716l2.857-.002v-16Zm-5.714 0-2.857.286v15.716l2.857-.002v-16ZM66.853 35.155v-9.281h-.25l-4.494 4.1v.073H64v5.982c0 2.206 1.23 3.37 3.082 3.37 1.436 0 2.56-.686 3.33-1.913v-.146c-.479.166-.895.25-1.332.25-1.394 0-2.227-.916-2.227-2.435Zm-42.853 0v-9.281h-.131l-4.44 4.1v.073h1.714v5.982c0 2.206 1.352 3.37 3.204 3.37 1.416 0 2.54-.686 3.33-1.913v-.146c-.479.166-.916.25-1.353.25-1.373 0-2.324-.916-2.324-2.435Zm33.143-6.243V39.19H60V28.6l-2.857.312ZM32.57 28.6l-2.857.333v10.259l2.857-.002V28.6Zm59.254 6.055a4.79 4.79 0 0 0 1.394.209c2.289 0 4.203-1.54 4.203-3.372 0-1.602-1.519-2.871-3.725-2.892v.145c.708.375.874 1.27.874 2.06 0 2.04-1.269 3.58-2.746 3.705v.145Zm-49.943 0c.395.125.874.209 1.394.209 2.29 0 4.183-1.54 4.183-3.372 0-1.602-1.52-2.871-3.725-2.892v.145c.707.375.874 1.27.874 2.06 0 2.04-1.27 3.58-2.726 3.705v.145ZM93.115 28.6c-3.06 0-5.328 2.31-5.328 5.473S89.953 39.4 92.97 39.4c2.019 0 3.663-1.02 4.474-2.83v-.187c-.624.561-1.665.853-2.705.853-2.372 0-3.85-1.498-3.85-4.017 0-1.852.812-3.808 2.227-4.474V28.6Zm-49.943 0c-3.059 0-5.348 2.31-5.348 5.473s2.164 5.327 5.182 5.327c2.039 0 3.683-1.02 4.474-2.83v-.187c-.625.561-1.665.853-2.705.853-2.352 0-3.85-1.52-3.85-4.017 0-1.852.832-3.808 2.247-4.474V28.6Zm10.26 10.8c1.414 0 2.475-.853 3.141-2.164v-.125c-.353.187-.79.312-1.248.312-1.623-.02-2.81-1.436-2.81-3.6 0-2.83 1.728-4.745 3.996-4.745v-.166c-.479-.208-1.103-.312-1.748-.312-3.059 0-5.39 2.434-5.39 5.785 0 2.872 1.644 5.015 4.058 5.015Zm14.282-9.353h2.857v-1.135h-2.857v1.135Zm-42.857.029h2.857v-1.143h-2.857v1.143Zm56.286-1.164h-3.429l4.392 10.425h.209l1.602-3.35-2.774-7.075Zm-6 0H72l4.3 10.425h.209l1.602-3.35-2.968-7.075Zm8.857 0c.52 1.02.957 2.913.957 3.912h.146l2.04-3.92-3.143.008Zm-50.857 2.85c.645-.666 1.643-.852 2.538-.852.582 0 .906.125 1.176.25v-2.415a1.972 1.972 0 0 0-.718-.145c-1.644 0-2.642 1.122-2.996 3.058v.104Z" clip-rule="evenodd"/></svg>
